X:1
T:Easter Angels (Warren), 77.77.87
T:Easter Angels (Warren), 77.77.87
T:George William Warren, 1895
T:Public Domain Courtesy of the Cyber Hymnal™
C:George William Warren, 1895
Z:Public Domain
Z:Courtesy of the Cyber Hymnal™
%%score ( 1 2 ) ( 3 4 )
L:1/8
Q:1/4=110
M:4/4
K:G
V:1 treble 
V:2 treble 
V:3 bass 
V:4 bass 
V:1
 [DB]2 [DB]2 [DB]2 [DB]2 | [Dd]2 (c>B) [DA]4 | [^DB]2 [DB]2 [EB]2 [EB]2 | [=Fd]2 (c>B) [DA]4 | %4
 (d>c) (B>A) [DG]2 [DF]2 | [CE]2 [DE]2 [CA]4 | ([Ec]>[DB]) ([CA]>[B,G]) [A,F]2 (E>D) | %7
 [B,D]2 [CD]2 [B,B]4 | [B,G]2 [B,G]2 (GE) [Cc]2 | [^CA]2 [CA]2 (AF) [Dd]2 | %10
 ([Gd]2 [^Af]>)[Ae] [Bd]2 (cB) | A [EA]2 [FA] G4 |] %12
V:2
 x8 | x2 E2 x4 | x8 | x2 E2 x4 | D2 D2 x4 | x8 | x6 C2 | x8 | x4 C2 x2 | x4 D2 x2 | x6 ^G2 | %11
 A x2 G4 x |] %12
V:3
 G,2 G,2 G,2 G,2 | [B,,G,]2 [C,G,]2 [D,F,]4 | [B,,F,]2 [B,,F,]2 [E,G,]2 [E,G,]2 | %3
 [B,,G,]2 [C,G,]2 [D,F,]4 | [B,,G,]2 [B,,G,]2 [B,,G,]2 [B,,G,]2 | [C,G,]2 [B,,^G,]2 [A,,A,]4 | %6
 E,2 E,2 D,2 ([E,G,]>[F,A,]) | G,2 [D,F,]2 [G,,G,]4 | [=F,G,]2 [F,G,]2 [E,G,]2 [E,G,]2 | %9
 [G,A,]2 [G,A,]2 [F,A,]2 [F,A,]2 | ([G,B,]2 [G,^C]>)[G,C] [G,D]2 [E,D]2 | %11
 [A,C] [A,C]2 [F,C] [G,,B,]4 |] %12
V:4
 G,2 G,2 G,2 G,2 | x8 | x8 | x8 | x8 | x8 | (A,,>B,,) (C,>^C,) D,2 x2 | G,2 x6 | x8 | x8 | x8 | %11
 x8 |] %12

